lib/svg/diff-ignored.svg

<svg xmlns="http://www.w3.org/2000/svg" width="14" height="16" viewBox="0 0 14 16"><path d="M13 1H1c-.55 0-1 .45-1 1v12c0 .55.45 1 1 1h12c.55 0 1-.45 1-1V2c0-.55-.45-1-1-1zm0 13H1V2h12v12zm-8.5-2H3v-1.5L9.5 4H11v1.5L4.5 12z"/></svg>

<?xml version="1.0" encoding="UTF-8" standalone="no"?>
<svg width="14px" height="16px" viewBox="0 0 14 16" version="1.1" xmlns="http://www.w3.org/2000/svg" xmlns:xlink="http://www.w3.org/1999/xlink">
    <!-- Generator: Sketch 3.8.3 (29802) - http://www.bohemiancoding.com/sketch -->
    <title>diff-ignored</title>
    <desc>Created with Sketch.</desc>
    <defs></defs>
    <g id="Octicons" stroke="none" stroke-width="1" fill="none" fill-rule="evenodd">
        <g id="diff-ignored" fill="#000000">
            <path d="M13,1 L1,1 C0.45,1 0,1.45 0,2 L0,14 C0,14.55 0.45,15 1,15 L13,15 C13.55,15 14,14.55 14,14 L14,2 C14,1.45 13.55,1 13,1 L13,1 Z M13,14 L1,14 L1,2 L13,2 L13,14 L13,14 Z M4.5,12 L3,12 L3,10.5 L9.5,4 L11,4 L11,5.5 L4.5,12 L4.5,12 Z" id="Shape"></path>
        </g>
    </g>
</svg>
